X: 6911
T: Cheer Up Old Hag
R: jig
M: 6/8
K: Gmajor
|BGE EDE|GED D2c|BGE EBE|c3 B2A|
BGE EDE|GED D2c|BAG AFD|1 G3 G2A:|2 G3 G2D||
|:BGG G2B|ded d2c|BcA GBd|e2f g2D|
GBd gfe|dec BcA|BGE EDE|c3 B2A:|

